ix/bitcoin-refresh_bold.svg

<svg viewBox="0 0 24 24" fill="none" xmlns="http://www.w3.org/2000/svg" height="1em" width="1em">
  <path d="M23.5293 12.0483C23.2393 11.7583 22.7593 11.7583 22.4693 12.0483L22.0093 12.5083V11.9983C22.0093 6.47828 17.5193 1.98828 11.9993 1.98828C8.94927 1.98828 6.09927 3.35828 4.18927 5.73828C3.92927 6.05828 3.97927 6.53828 4.30927 6.79828C4.62927 7.04828 5.09927 6.99828 5.35927 6.67828C6.98927 4.64828 9.40927 3.48828 11.9993 3.48828C16.6893 3.48828 20.5093 7.30828 20.5093 11.9983V12.4983L20.0493 12.0383C19.7593 11.7483 19.2793 11.7483 18.9893 12.0383C18.6993 12.3283 18.6993 12.8083 18.9893 13.0983L20.7293 14.8383C20.7993 14.9083 20.8793 14.9583 20.9693 14.9983C21.0593 15.0383 21.1593 15.0583 21.2593 15.0583C21.3593 15.0583 21.4493 15.0383 21.5493 14.9983C21.6393 14.9583 21.7193 14.9083 21.7893 14.8383L23.5293 13.0983C23.8193 12.8183 23.8193 12.3383 23.5293 12.0483Z" fill="#292D32"/>
  <path d="M19.6895 17.1997C19.3695 16.9397 18.8895 16.9897 18.6395 17.3197C17.0095 19.3497 14.5895 20.5097 11.9995 20.5097C7.30945 20.5097 3.48945 16.6897 3.48945 11.9997V11.4997L3.94945 11.9597C4.09945 12.1097 4.28945 12.1797 4.47945 12.1797C4.66945 12.1797 4.85945 12.0997 4.99945 11.9497C5.28945 11.6597 5.28945 11.1797 4.99945 10.8897L3.26945 9.14969C3.19945 9.08969 3.10945 9.02969 3.01945 8.98969C2.83945 8.90969 2.62945 8.90969 2.44945 8.98969C2.35945 9.02969 2.27945 9.08969 2.20945 9.14969L0.469453 10.8897C0.179453 11.1797 0.179453 11.6597 0.469453 11.9497C0.759453 12.2397 1.23945 12.2397 1.52945 11.9497L1.98945 11.4897V11.9997C1.98945 17.5197 6.47945 22.0097 11.9995 22.0097C15.0495 22.0097 17.8995 20.6397 19.8095 18.2597C20.0695 17.9397 20.0195 17.4597 19.6895 17.1997Z" fill="#292D32"/>
  <path d="M15.45 11.64C15.72 11.24 15.87 10.77 15.87 10.25C15.87 8.92 14.7 7.75 13.37 7.75H12.55V6.75C12.55 6.34 12.21 6 11.8 6C11.39 6 11.05 6.34 11.05 6.75V7.75H9C8.59 7.75 8.25 8.09 8.25 8.5V12V15.5C8.25 15.91 8.59 16.25 9 16.25H11.05V17.25C11.05 17.66 11.39 18 11.8 18C12.21 18 12.55 17.66 12.55 17.25V16.25H14C15.52 16.25 16.75 15.13 16.75 13.75C16.75 12.86 16.23 12.08 15.45 11.64ZM9.75 9.25H13.37C13.92 9.25 14.37 9.8 14.37 10.25C14.37 10.8 13.92 11.25 13.37 11.25H9.75V9.25ZM14 14.75H9.75V12.75H13.37H14C14.69 12.75 15.25 13.2 15.25 13.75C15.25 14.3 14.69 14.75 14 14.75Z" fill="#292D32"/>
</svg>

<svg viewBox="0 0 24 24" fill="none" xmlns="http://www.w3.org/2000/svg" height="1em" width="1em">
  <path d="M23.53 12.048a.754.754 0 0 0-1.06 0l-.46.46v-.51c0-5.52-4.49-10.01-10.01-10.01-3.05 0-5.9 1.37-7.81 3.75-.26.32-.21.8.12 1.06.32.25.79.2 1.05-.12A8.476 8.476 0 0 1 12 3.488c4.69 0 8.51 3.82 8.51 8.51v.5l-.46-.46a.754.754 0 0 0-1.06 0c-.29.29-.29.77 0 1.06l1.74 1.74a.776.776 0 0 0 .53.22.753.753 0 0 0 .53-.22l1.74-1.74c.29-.28.29-.76 0-1.05ZM19.69 17.2a.738.738 0 0 0-1.05.12A8.476 8.476 0 0 1 12 20.51c-4.69 0-8.51-3.82-8.51-8.51v-.5l.46.46c.15.15.34.22.53.22s.38-.08.52-.23c.29-.29.29-.77 0-1.06L3.27 9.15c-.07-.06-.16-.12-.25-.16a.707.707 0 0 0-.57 0c-.09.04-.17.1-.24.16L.47 10.89c-.29.29-.29.77 0 1.06.29.29.77.29 1.06 0l.46-.46V12c0 5.52 4.49 10.01 10.01 10.01 3.05 0 5.9-1.37 7.81-3.75a.75.75 0 0 0-.12-1.06Z" fill="#292D32"/>
  <path d="M15.45 11.64c.27-.4.42-.87.42-1.39 0-1.33-1.17-2.5-2.5-2.5h-.82v-1c0-.41-.34-.75-.75-.75s-.75.34-.75.75v1H9c-.41 0-.75.34-.75.75v7c0 .41.34.75.75.75h2.05v1c0 .41.34.75.75.75s.75-.34.75-.75v-1H14c1.52 0 2.75-1.12 2.75-2.5 0-.89-.52-1.67-1.3-2.11Zm-5.7-2.39h3.62c.55 0 1 .55 1 1 0 .55-.45 1-1 1H9.75v-2Zm4.25 5.5H9.75v-2H14c.69 0 1.25.45 1.25 1s-.56 1-1.25 1Z" fill="#292D32"/>
</svg>
